img/icons/flecha.svg

<?xml version="1.0" encoding="UTF-8"?>
<svg xmlns="http://www.w3.org/2000/svg" xmlns:xlink="http://www.w3.org/1999/xlink" width="50px" height="px" viewBox="0 0 50 50" version="1.1">
<g id="surface1">
<path style=" stroke:none;fill-rule:nonzero;fill:rgb(42.745098%,76.078433%,72.941178%);fill-opacity:1;" d="M 9.53125 5.078125 C 15.808594 9.269531 22.121094 13.480469 29 16.648438 C 33.910156 18.910156 40.25 20.660156 42.878906 25.820312 L 43.78125 22.398438 C 37.011719 25.601562 30.390625 29.128906 23.96875 33 C 20.789062 34.910156 17.671875 36.910156 14.589844 38.980469 C 11.851562 40.828125 9.109375 43.300781 5.730469 43.769531 C 4.390625 43.960938 3.660156 45.671875 3.980469 46.851562 C 4.378906 48.289062 5.710938 48.78125 7.058594 48.601562 C 10.671875 48.101562 13.609375 45.671875 16.539062 43.691406 C 19.671875 41.570312 22.859375 39.519531 26.101562 37.558594 C 32.640625 33.601562 39.390625 29.988281 46.300781 26.71875 C 47.570312 26.121094 47.769531 24.421875 47.199219 23.300781 C 44.25 17.511719 37.941406 15.199219 32.371094 12.710938 C 25.171875 9.5 18.589844 5.121094 12.058594 0.761719 C 9.378906 -1.03125 6.871094 3.300781 9.539062 5.078125 Z M 9.53125 5.078125 "/>
</g>
</svg>

<?xml version="1.0" encoding="UTF-8"?>
<svg id="Layer_1" xmlns="http://www.w3.org/2000/svg" version="1.1" viewBox="0 0 50 50">
  <!-- Generator: Adobe Illustrator 29.0.0, SVG Export Plug-In . SVG Version: 2.1.0 Build 186)  -->
  <defs>
    <style>
      .st0 {
        fill: #6dc2ba;
      }
    </style>
  </defs>
  <path class="st0" d="M9.53,5.08c6.28,4.19,12.59,8.4,19.47,11.57,4.91,2.26,11.25,4.01,13.88,9.17l.9-3.42c-6.77,3.2-13.39,6.73-19.81,10.6-3.18,1.91-6.3,3.91-9.38,5.98-2.74,1.85-5.48,4.32-8.86,4.79-1.34.19-2.07,1.9-1.75,3.08.4,1.44,1.73,1.93,3.08,1.75,3.61-.5,6.55-2.93,9.48-4.91,3.13-2.12,6.32-4.17,9.56-6.13,6.54-3.96,13.29-7.57,20.2-10.84,1.27-.6,1.47-2.3.9-3.42-2.95-5.79-9.26-8.1-14.83-10.59-7.2-3.21-13.78-7.59-20.31-11.95-2.68-1.79-5.19,2.54-2.52,4.32h0Z"/>
</svg>
